X: 04063
T: MISS GYSAN'S JIG
C: Bob McQuillen 12 Aug 79
B: Bob's Note Book 04 #63
R: jig
Z: 2020 John Chambers <jc:trillian.mit.edu>
M: 6/8
L: 1/8
K: D
e \
| fef edc | Bcd ABA | FAA BAA | FAA B2A |\
| fef edc | Bcd ABA | FAA BAA | Bdd d2 :|
|: e \
| faa afe | faa baa | faa fef | dBB Bde |\
| faa afe | faa baa | faa def | edd d2 :|
%%begintext align
%% One of my favorite school
%% girls is named Michelle Gysan,
%% and this is your tune, Mishey,
%% with love from Mr. Mac.
%%endtext

%%sep 1 1 500

%%sep 1 1 500

